icon-themes/breeze_svg/cmd/sc_exportto.svg

<svg viewBox="0 0 16 16" xmlns="http://www.w3.org/2000/svg">/&gt;<path d="m3 2v10h1 3.09375l-2 2h1.40625l2.3125-2.28125.1875-.21875-.1875-.21875-2.3125-2.28125h-1.40625l2 2h-3.09375v-8h8v10h-3v1h4v-12z" fill="#4d4d4d"/></svg>

<svg xmlns="http://www.w3.org/2000/svg" viewBox="0 0 16 16">
     />
 <path 
     style="fill:#4d4d4d" 
     d="M 3 2 L 3 12 L 4 12 L 7.09375 12 L 5.09375 14 L 6.5 14 L 8.8125 11.71875 L 9 11.5 L 8.8125 11.28125 L 6.5 9 L 5.09375 9 L 7.09375 11 L 4 11 L 4 3 L 12 3 L 12 13 L 9 13 L 9 14 L 13 14 L 13 2 L 3 2 z "
     />
 </svg>
